lite/images/sprite/ico-child-disease/ico-child-disease__12.svg

<?xml version="1.0" encoding="utf-8"?><svg xmlns="http://www.w3.org/2000/svg" width="80" height="60" viewBox="0 0 80 60"><g fill-rule="evenodd" clip-rule="evenodd"><path fill="#61B6E6" d="M39.5 2.75c-14.773 0-26.75 11.976-26.75 26.75S24.727 56.25 39.5 56.25c14.774 0 26.75-11.976 26.75-26.75S54.274 2.75 39.5 2.75zm.153 50.672c-13.047 0-23.625-10.7-23.625-23.9S26.605 5.625 39.653 5.625c13.047 0 23.625 10.7 23.625 23.9S52.7 53.42 39.653 53.42z"/><path fill="#9A5E49" d="M36.246 19.444l-7.8-6.754-1.332 1.617 7.515 6.564 1.615-1.425zm10.368-8.18l-2.473-1.238-5.515 10.75 2.473 1.426 5.517-10.94zM44.426 27.15l9.037-9.42-1.807-1.9-8.94 9.226 1.71 2.092zm7.61 1.14l7.61-3.044-.95-2.854-7.8 2.95 1.14 2.948zm-14.744 4.66l-12.746 3.995 1.14 2.188L37.96 34.95l-.666-2zm-3.995 7.135l5.612 7.325L41 45.985l-5.327-7.23-2.378 1.332zM47.47 35.33l-6.278 4.185 1.427 2.283 6.657-4.376-1.808-2.093zm-.856-4.947l7.99 7.42 1.807-2.094-8.083-7.136-1.712 1.808zm-11.89-4.66l9.037 8.75 1.714-2.092-9.322-8.274-1.426 1.617zm-4.66 4.946l2.377-.287-2.28-9.322-2.38.57 2.284 9.038zm-4.854-5.33l-6.182 2.854.76 1.807 6.28-2.95-.857-1.71zm19.788 18.17l3.234 4.947 1.428-1.332-3.33-4.47-1.33.855z"/></g></svg>

<?xml version="1.0" encoding="utf-8"?>
<!-- Generator: Adobe Illustrator 17.1.0, SVG Export Plug-In . SVG Version: 6.00 Build 0)  -->
<!DOCTYPE svg PUBLIC "-//W3C//DTD SVG 1.1//EN" "http://www.w3.org/Graphics/SVG/1.1/DTD/svg11.dtd">
<svg version="1.1" xmlns="http://www.w3.org/2000/svg" xmlns:xlink="http://www.w3.org/1999/xlink" x="0px" y="0px" width="80px"
	 height="60px" viewBox="0 0 80 60" enable-background="new 0 0 80 60" xml:space="preserve">
<g id="Слой_47__x2B__Слой_0__x2B__Группа_1__x2B__Фигура_1_копия_2_xA0_Изображение_1_">
</g>
<g id="подвал_xA0_Изображение_1_">
</g>
<g id="Группа_179_3_">
	<g id="Группа_178_3_">
		<g id="Тень_Слой_49_xA0_Изображение_1_">
		</g>
		<g id="Слой_49_2_" enable-background="new    ">
		</g>
		<g id="Фигура_753_2_" enable-background="new    ">
		</g>
		
			<g id="Вовремя__xAB_ловить_xBB__начальные_симптомы_болезней_x2C__быстро_реагироват_1_">
		</g>
		<g id="Об_этом_наш_сервис_x21__xA0_Изображение_1_">
		</g>
	</g>
</g>
<g id="шапка_сайта_1_">
	<g id="полоска_xA0_Изображение_1_">
	</g>
	<g id="Группа_176_1_">
		<g id="ЛОГО_копия_2_xA0_Изображение_1_">
		</g>
		<g id="иконки_1_">
			<g id="диалоги_1_">
				<g id="Фигура_577_копия_22_xA0_Изображение_1_">
				</g>
				<g id="_x31__2_">
				</g>
				<g id="вам_письмо_xA0_Изображение_1_">
				</g>
			</g>
			<g id="мой_жираф_2_">
				<g id="мой_жираф_xA0_Изображение_1_">
				</g>
			</g>
			<g id="Изображение_xA0_49_1_" display="none">
			</g>
		</g>
		<g id="поиск__x2B__добавить_1_">
			<g id="поиск_1_">
				<g id="Фигура_561_xA0_Изображение_1_">
				</g>
				<g id="Поиск_xA0_Изображение_1_">
				</g>
			</g>
		</g>
		<g id="Вход_xA0_Изображение_1_">
		</g>
		<g id="Регистрация_xA0_Изображение_1_">
		</g>
	</g>
</g>
<g id="Я_здесь:___Главная___x3E_______________x3E___Справочник_детских_болезне_1_">
</g>
<g id="Векторный_смарт-объект_xA0_Изображение_1_">
</g>
<g id="Изображение_xA0_69_1_" display="none" opacity="0.4314">
	<g id="Фигура_752_копия_3" display="inline" opacity="0.302">
		<g>
			<rect x="9.75" y="-529.75" fill-rule="evenodd" clip-rule="evenodd" fill="#66508C" width="198" height="671"/>
		</g>
	</g>
</g>
<g id="категории_1_">
	<g id="_x31__1_">
		<g id="Врождённый_порок_сердца_Ревматическая_хорея_Лимфаденит_1_">
		</g>
		<g id="hand_копия_8_xA0_Изображение_1_">
		</g>
		<g id="Болезни_кровообращения_xA0_Изображение_1_">
		</g>
	</g>
	<g id="_x32__1_">
		
			<g id="Гастрит_Дуоденит_Географический_язык_Дискинезия_желчевыводящих_1_">
		</g>
		<g id="Гастроэнтерология_xA0_Изображение_1_">
		</g>
		<g id="Группа_179_2_">
		</g>
	</g>
	<g id="_x33__1_">
		<g id="Анемия_Гемофилия_Лейкоз_Тромбоцитопения_1_">
		</g>
		<g id="Гематология_xA0_Изображение_1_">
		</g>
		<g id="Группа_14_1_">
		</g>
	</g>
	<g id="_x31__копия_3_">
		<g id="Рахит_x0D__x0D__x0D__x0D__x0D__x0D_">
		</g>
		<g id="Гиповитаминозы_xA0_Изображение_1_">
		</g>
		<g id="_x31__копия_37_1_">
		</g>
	</g>
	<g id="_x32__копия_1_">
		
			<g id="Гипотиреоз_Тиреотоксикоз_Сахарный_диабет_Тиреоидит_Ожирение_Син_1_">
		</g>
		<g id="Эндокринология_xA0_Изображение_1_">
		</g>
		<g id="Группа_19_1_">
		</g>
	</g>
	<g id="_x33__копия_1_">
		
			<g id="Лямблиоз_Грибковые_заболевания_Гельминтозы_Педикулёз_Чесотка_1_">
		</g>
		<g id="Паразитология_xA0_Изображение_1_">
		</g>
		<g id="Группа_21_копия_1_">
			<g id="Фигура_424_копия">
				<g>
					<path fill-rule="evenodd" clip-rule="evenodd" fill="#61B6E6" d="M39.5,2.75c-14.773,0-26.75,11.976-26.75,26.75
						c0,14.774,11.977,26.75,26.75,26.75c14.774,0,26.75-11.976,26.75-26.75C66.25,14.726,54.274,2.75,39.5,2.75z M39.653,53.422
						c-13.047,0-23.625-10.7-23.625-23.899S26.605,5.624,39.653,5.624c13.047,0,23.625,10.7,23.625,23.899
						S52.7,53.422,39.653,53.422z"/>
				</g>
			</g>
			<g id="Фигура_425_копия">
				<g>
					<path fill-rule="evenodd" clip-rule="evenodd" fill="#9A5E49" d="M36.246,19.444l-7.8-6.754l-1.332,1.617l7.515,6.564
						L36.246,19.444z M46.614,11.263l-2.473-1.237l-5.517,10.749l2.473,1.427L46.614,11.263z M44.426,27.149l9.037-9.417
						l-1.807-1.902l-8.941,9.227L44.426,27.149z M52.036,28.291l7.61-3.044l-0.951-2.854l-7.8,2.949L52.036,28.291z M37.292,32.951
						l-12.746,3.995l1.141,2.188l12.271-4.185L37.292,32.951z M33.297,40.086l5.612,7.325l2.093-1.427l-5.327-7.229L33.297,40.086z
						 M47.47,35.329l-6.278,4.186l1.427,2.283l6.659-4.376L47.47,35.329z M46.614,30.383l7.99,7.419l1.807-2.093l-8.085-7.134
						L46.614,30.383z M34.724,25.722l9.037,8.752l1.712-2.093l-9.322-8.276L34.724,25.722z M30.063,30.669l2.378-0.285l-2.283-9.322
						l-2.378,0.571L30.063,30.669z M25.211,25.342l-6.183,2.854l0.761,1.807l6.278-2.949L25.211,25.342z M44.997,43.51l3.234,4.947
						l1.427-1.332l-3.329-4.471L44.997,43.51z"/>
				</g>
			</g>
		</g>
	</g>
	<g id="_x31__копия_2_1_">
		
			<g id="Коклюш_Ветряная_оспа_Корь_Краснуха_Эпидемический_паротит_Скарла_1_">
		</g>
		<g id="Детские_инфекции_xA0_Изображение_1_">
		</g>
		<g id="Группа_20_1_">
		</g>
	</g>
	<g id="_x32__копия_2_1_">
		
			<g id="Гастрит_Дуоденит_Географический_язык_Дискинезия_желчевыводящих__копия_1_">
		</g>
		<g id="Дерматология_xA0_Изображение_1_">
		</g>
		<g id="Группа_13_1_">
		</g>
	</g>
	<g id="_x32__копия_5_1_">
		<g id="Пупочная_грыжа_Аппендицит_Мозоль_Острый_панкреатит_1_">
		</g>
		<g id="Хирургия_xA0_Изображение_1_">
		</g>
	</g>
	<g id="_x32__копия_6_1_">
		
			<g id="Коньюнктивит_Ячмень_Близорукость_Дакриоаденит_Дальнозоркость_Ас_1_">
		</g>
		<g id="Офтальмология_xA0_Изображение_1_">
		</g>
	</g>
	<g id="_x32__копия_7_1_">
		
			<g id="Коньюнктивит_Ячмень_Близорукость_Дакриоаденит_Дальнозоркость_Ас_копия_1_">
		</g>
		<g id="Урология_xA0_Изображение_1_">
		</g>
	</g>
	<g id="_x33__копия_2_1_">
		<g id="Анемия_Гемофилия_Лейкоз_Тромбоцитопения_______копия_2_1_">
		</g>
		<g id="Нервология_xA0_Изображение_1_">
		</g>
	</g>
	<g id="_x33__копия_4_1_">
		<g id="Бронхит_x0D_Пневмония_x0D__x0D__x0D__x0D__x0D__x0D_">
		</g>
		<g id="Пульмонология_xA0_Изображение_1_">
		</g>
	</g>
	<g id="_x33__копия_5_1_">
		
			<g id="Компьютерная_зависимость_Нервный_стресс_Умственная_отсталость_Ш_1_">
		</g>
		<g id="Психиатрия_xA0_Изображение_1_">
		</g>
		<g id="Группа_18_1_">
		</g>
	</g>
	<g id="_x31__копия_3_1_">
		<g id="Гемангиома_x0D_Мастоцитома_x0D__x0D__x0D__x0D__x0D__x0D_">
		</g>
		<g id="Онкология_xA0_Изображение_1_">
		</g>
		<g id="Группа_17_1_">
		</g>
	</g>
	<g id="_x32__копия_3_1_">
		
			<g id="Трахеит_Ларингит_Острый_ринит_Тонзиллит_Синусит_Острый_фарингит_1_">
		</g>
		<g id="Оториноларингология_xA0_Изображение_1_">
		</g>
		<g id="Группа_11_1_">
		</g>
	</g>
	<g id="_x32__копия_4_1_">
		
			<g id="Дизентерия_Амёбиаз_Холера_Кишечные_инфекции_x2C__вызванные_условно-_1_">
		</g>
		<g id="Инфекции_xA0_Изображение_1_">
		</g>
		<g id="_x31__копия_2_">
		</g>
	</g>
	<g id="_x33__копия_3_1_">
		<g id="Стоматит_Нарушение_прорезывания_зубов_1_">
		</g>
		<g id="Стоматология_xA0_Изображение_1_">
		</g>
		<g id="Фигура_361_xA0_Изображение_1_">
		</g>
	</g>
</g>
<g id="Существует_такой_термин__x2013___xAB_детские_болезни_xBB_._Раз_он_есть_x2C__значи_xA0_Изображение_1_">
</g>
<g id="Группа_178_2_">
	<g id="Слой_50_2_" enable-background="new    ">
	</g>
	
		<g id="Детский_организм_работает_совсем_иначе_x2C__нежели_взрослый._Посмот_xA0_Изображение_1_">
	</g>
</g>
<g id="Справочник_детских_болезней_xA0_Изображение_1_">
</g>
<g id="Изображение_xA0_276_xA0_Изображение_1_" display="none" opacity="0.149">
	
		<image display="inline" overflow="visible" width="940" height="3004" id="Изображение_xA0_276_xA0_Изображение" xlink:href="C4F26586.png"  transform="matrix(1 0 0 1 -703.25 -1025.75)">
	</image>
</g>
</svg>
